X:391
T:Reel 391
M:4/4
K:Ddor
L:1/8
c>d (3dcc |c>A (3GAG F2A>c|dcdc d>c (3cBA |G>c (3ccc d>e (3ccc |d>ecA BcA>c (3ccc ||f2 (3dcd edd2:||2 (3fgf ge def2|
